assets/svg/menu-icon.svg

<svg width="31" height="23" xmlns="http://www.w3.org/2000/svg"><path d="M0 0h31v3H0V0zm0 10h31v3H0v-3zm0 10h31v3H0v-3z" fill="#FFF" fill-rule="evenodd"/></svg>

<?xml version="1.0" encoding="UTF-8" standalone="no"?>
<svg width="31px" height="23px" viewBox="0 0 31 23" version="1.1" xmlns="http://www.w3.org/2000/svg" xmlns:xlink="http://www.w3.org/1999/xlink">
    <defs></defs>
    <g id="Page-1" stroke="none" stroke-width="1" fill="none" fill-rule="evenodd">
        <path d="M0,0 L31,0 L31,3 L0,3 L0,0 Z M0,10 L31,10 L31,13 L0,13 L0,10 Z M0,20 L31,20 L31,23 L0,23 L0,20 Z" id="Menu-Icon" fill="#FFFFFF"></path>
    </g>
</svg>
